X:2
T:Burton Bend
M:6/8
L:1/8
%Q:200
S:Trevor Keates <tanda.keates:tesco.net> tradtunes 2006-3-25
K:G
d |\
Bcd Bcd | B2G G2d | efg efg | f2d d2c |\
Bcd Bcd | B2G G2B | A2B ^c2A | (d3 d2) :|
|: d |\
gfg de=f | e2c c2e | a^ga ef=g | f2d d2d |\
gfg dBd | e^de cAc | d^cd DEF | (G3 G2) :|
